public/icons/مالك عقار.svg

<svg xmlns="http://www.w3.org/2000/svg" xmlns:xlink="http://www.w3.org/1999/xlink" width="500" zoomAndPan="magnify" viewBox="0 0 375 374.999991" height="500" preserveAspectRatio="xMidYMid meet" version="1.0"><defs><clipPath id="81a52d5e21"><path d="M 107.003906 131.542969 L 267.945312 131.542969 L 267.945312 283.796875 L 107.003906 283.796875 Z M 107.003906 131.542969 " clip-rule="nonzero"/></clipPath></defs><rect x="-37.5" width="450" fill="#ffffff" y="-37.499999" height="449.999989" fill-opacity="1"/><rect x="-37.5" width="450" fill="#ffffff" y="-37.499999" height="449.999989" fill-opacity="1"/><g clip-path="url(#81a52d5e21)"><path fill="#0284c7" d="M 266.898438 200.304688 L 190.921875 133.191406 C 188.953125 131.453125 185.996094 131.453125 184.027344 133.191406 L 108.050781 200.304688 C 107.492188 200.800781 107.171875 201.511719 107.171875 202.257812 L 107.171875 281.195312 C 107.171875 282.632812 108.335938 283.796875 109.773438 283.796875 L 163.179688 283.796875 C 164.617188 283.796875 165.785156 282.632812 165.785156 281.195312 L 165.785156 230.777344 C 165.785156 225.027344 170.445312 220.363281 176.199219 220.363281 L 198.75 220.363281 C 204.503906 220.363281 209.164062 225.027344 209.164062 230.777344 L 209.164062 281.195312 C 209.164062 282.632812 210.332031 283.796875 211.769531 283.796875 L 265.175781 283.796875 C 266.613281 283.796875 267.777344 282.632812 267.777344 281.195312 L 267.777344 202.257812 C 267.777344 201.511719 267.457031 200.800781 266.898438 200.304688 " fill-opacity="1" fill-rule="nonzero"/></g><path fill="#0284c7" d="M 287.832031 174.265625 L 201.222656 98.148438 C 193.359375 91.238281 181.589844 91.238281 173.722656 98.148438 L 87.117188 174.265625 C 82.847656 178.019531 82.636719 184.59375 86.65625 188.617188 C 90.328125 192.285156 96.222656 192.472656 100.117188 189.042969 L 180.589844 118.164062 C 184.527344 114.699219 190.421875 114.699219 194.359375 118.164062 L 274.832031 189.042969 C 278.726562 192.472656 284.621094 192.285156 288.292969 188.617188 C 292.3125 184.59375 292.101562 178.015625 287.832031 174.265625 " fill-opacity="1" fill-rule="nonzero"/></svg>

<svg xmlns="http://www.w3.org/2000/svg" width="500" height="500" viewBox="0 0 375 375" preserveAspectRatio="xMidYMid meet">
  <defs>
    <clipPath id="clip-house">
      <path d="M107.004 131.543h160.941V283.797H107.004z" />
    </clipPath>
  </defs>
  <g clip-path="url(#clip-house)">
    <path
      fill="#0284c7"
      d="M266.898 200.305 190.922 133.191a6 6 0 0 0-6.895 0l-75.977 67.114a3.42 3.42 0 0 0-1.207 2.666v78.937a2.6 2.6 0 0 0 2.602 2.604h53.406a2.6 2.6 0 0 0 2.605-2.604v-50.418c0-5.75 4.66-10.414 10.414-10.414h22.55c5.754 0 10.414 4.664 10.414 10.414v50.418a2.6 2.6 0 0 0 2.605 2.604h53.406a2.6 2.6 0 0 0 2.605-2.604v-78.938a3.42 3.42 0 0 0-1.211-2.664"
    />
  </g>
  <path
    fill="#0284c7"
    d="m287.832 174.266-86.61-76.118c-7.863-6.91-19.633-6.91-27.5 0l-86.605 76.117c-4.27 3.754-4.48 10.328-.46 14.352 3.672 3.668 9.566 3.855 13.46.426l80.473-70.879c3.938-3.465 9.832-3.465 13.77 0l80.473 70.879c3.895 3.43 9.789 3.242 13.461-.426 4.02-4.024 3.809-10.602-.461-14.351"
  />
</svg>
